packages/webapp/public/images/template-logos/splitwise.svg

<svg width="62" height="62" viewBox="0 0 62 62" fill="none" xmlns="http://www.w3.org/2000/svg">
<path fill-rule="evenodd" clip-rule="evenodd" d="M25.7103 35.6902L30.6789 32.8273L10 20.9141V32.6796C11.5496 31.8464 13.5019 31.412 15.7369 31.412C20.6051 31.412 23.6851 33.4749 25.7091 35.6907M16.5865 52.1123C18.6578 52.1123 20.2193 51.5031 20.2193 49.9439C20.2193 48.3514 18.2162 47.7416 15.7375 47.1319C13.8929 46.6603 11.7747 46.187 10.0006 45.2946V48.3176C11.4937 50.7235 13.9724 52.1123 16.5865 52.1123Z" fill="#1CC29F"/>
<path fill-rule="evenodd" clip-rule="evenodd" d="M51.3584 44.7408V20.9131L30.679 32.8275L51.3584 44.7408Z" fill="#52595F"/>
<path fill-rule="evenodd" clip-rule="evenodd" d="M51.3577 20.9138L30.6789 9L10 20.9138L30.6789 32.8271L51.3577 20.9138Z" fill="#ACE4D6"/>
<path fill-rule="evenodd" clip-rule="evenodd" d="M30.679 32.8271L25.7098 35.69L20.3835 38.7587C19.0223 37.679 17.2917 36.9 15.7037 36.9C13.7689 36.9 12.7839 37.543 12.7839 38.7294C12.7839 40.1018 14.131 40.7556 15.9971 41.2859C16.4065 41.4009 16.818 41.5086 17.2313 41.6091C21.3397 42.5918 26.8402 43.8452 26.8402 49.4693C26.8402 50.65 26.5909 51.8267 26.0449 52.9002H51.3578V44.741L30.679 32.8271Z" fill="#373B3F"/>
<path fill-rule="evenodd" clip-rule="evenodd" d="M17.2318 41.609C16.8181 41.5085 16.4063 41.4008 15.9964 41.2857C14.1309 40.7555 12.7838 40.1011 12.7838 38.7292C12.7838 37.5429 13.7682 36.8999 15.7036 36.8999C17.2916 36.8999 19.0223 37.6789 20.3834 38.7591L25.7097 35.6899C23.6857 33.4741 20.6051 31.4111 15.7375 31.4111C13.5019 31.4111 11.5496 31.8449 10.0006 32.6787V45.2943C11.7747 46.1867 13.8929 46.6594 15.7375 47.131C18.2156 47.7413 20.2193 48.3511 20.2193 49.9436C20.2193 51.5022 18.6573 52.112 16.5865 52.112C13.9724 52.112 11.4937 50.7232 10 48.3173V52.9001H26.0453C26.5908 51.8266 26.8402 50.6493 26.8402 49.4692C26.8402 43.8451 21.3407 42.5911 17.2318 41.609Z" fill="white"/>
</svg>

<svg xmlns="http://www.w3.org/2000/svg" width="62" height="62" fill="none" fill-rule="evenodd"><path d="M25.71 35.69l4.969-2.863L10 20.914V32.68c1.55-.833 3.502-1.268 5.737-1.268 4.868 0 7.948 2.063 9.972 4.279m-9.123 16.422c2.071 0 3.633-.609 3.633-2.168 0-1.593-2.003-2.202-4.482-2.812-1.845-.472-3.963-.945-5.737-1.837v3.023c1.493 2.406 3.972 3.795 6.586 3.795z" fill="#1cc29f"/><path d="M51.358 44.741V20.913L30.679 32.828l20.68 11.913z" fill="#52595f"/><path d="M51.358 20.914L30.679 9 10 20.914l20.679 11.913 20.679-11.913z" fill="#ace4d6"/><path d="M30.679 32.827L25.71 35.69l-5.326 3.069c-1.361-1.08-3.092-1.859-4.68-1.859-1.935 0-2.92.643-2.92 1.829 0 1.372 1.347 2.026 3.213 2.557l1.234.323c4.108.983 9.609 2.236 9.609 7.86 0 1.181-.249 2.357-.795 3.431h25.313v-8.159L30.679 32.827z" fill="#373b3f"/><path d="M17.232 41.609l-1.235-.323c-1.865-.53-3.213-1.185-3.213-2.556 0-1.186.984-1.829 2.92-1.829 1.588 0 3.319.779 4.68 1.859l5.326-3.069c-2.024-2.216-5.105-4.279-9.972-4.279-2.236 0-4.188.434-5.737 1.268v12.616c1.774.892 3.892 1.365 5.737 1.837 2.478.61 4.482 1.22 4.482 2.813 0 1.559-1.562 2.168-3.633 2.168-2.614 0-5.093-1.389-6.587-3.795V52.9h16.045c.546-1.074.795-2.251.795-3.431 0-5.624-5.5-6.878-9.608-7.86z" fill="#fff"/></svg>
